X: 510
T: Jiefu huan xiaoyi
%%abc-version 2.0
%%abcx-abcm2ps-target-version 5.9.1 (29 Sep 2008)
%%abc-creator hum2abc beta
%%abcx-conversion-date 2013/10/02 07:52:30
%%abc-edited-by Helmut Schaffrath
%%humdrum-veritas 1318151029
%%humdrum-veritas-data 1607942773
%%continueall 1
%%barnumbers 0
L: 1/8
M: 2/4
K: F
f e d c [I:setbarnb 1]| 
f e d c | 
A c A G | 
F4 | 
c c d c | 
d> c A G | 
F D C D | 
C4 |]  



